!!!COM: Mendelssohn, Felix
!!!CDT: 1809/02/03-1847/11/04
!!!OPR: Sechs vierstimmige Lieder
!!!OTL: Die Primel
!!!OPS: Op. 48
!!!ONM: Nr. 2
!!!OMD: Allegretto
**kern	**text	**text	**dynam	**kern	**text	**text	**dynam	**kern	**text	**text	**dynam	**kern	**text	**text	**dynam
*part4	*part4	*part4	*part4	*part3	*part3	*part3	*part3	*part2	*part2	*part2	*part2	*part1	*part1	*part1	*part1
*staff4	*staff4	*staff4	*	*staff3	*staff3	*staff3	*	*staff2	*staff2	*staff2	*	*staff1	*staff1	*staff1	*
*I"Bass	*	*	*	*I"Tenor	*	*	*	*I"Alt	*	*	*	*I"Sopran	*	*	*
*clefF4	*	*	*	*clefGv2	*	*	*	*clefG2	*	*	*	*clefG2	*	*	*
*k[f#c#g#]	*	*	*	*k[f#c#g#]	*	*	*	*k[f#c#g#]	*	*	*	*k[f#c#g#]	*	*	*
*A:	*	*	*	*A:	*	*	*	*A:	*	*	*	*A:	*	*	*
*M2/4	*	*	*	*M2/4	*	*	*	*M2/4	*	*	*	*M2/4	*	*	*
*MM72	*	*	*	*MM72	*	*	*	*MM72	*	*	*	*MM72	*	*	*
=1	=1	=1	=1	=1	=1	=1	=1	=1	=1	=1	=1	=1	=1	=1	=1
8A	1.Lieb	2.Lei-	p	8c#	1.Lieb	2.Lei-	p	8e	1.Lieb	2.Lei-	p	8a	1.Lieb	2.Lei-	p
16B	-li-	-ser	.	16d	-li-	-ser	.	16e	-li-	-ser	.	16g#	-li-	-ser	.
16A	-che	denn	.	16c#	-che	denn	.	16e	-che	denn	.	16a	-che	denn	.
=2	=2	=2	=2	=2	=2	=2	=2	=2	=2	=2	=2	=2	=2	=2	=2
8G#	Blu-	al-	.	8B	Blu-	al-	.	8e	Blu-	al-	.	8dd	Blu-	al-	.
8A	-me,	-le	.	8c#	-me,	-le	.	8e	-me,	-le	.	8cc#	-me,	-le	.
8c#	bist	Blu-	.	8e	bist	Blu-	.	8e	bist	Blu-	.	8a	bist	Blu-	.
16B	du	-men	<	16d	du	-men	<	16e	du	-men	<	16g#	du	-men	<
16A	so	der	.	16c#	so	der	.	16e	so	der	.	16a	so	der	.
=3	=3	=3	=3	=3	=3	=3	=3	=3	=3	=3	=3	=3	=3	=3	=3
8D	früh	Wie-	[	8d	früh	Wie-	[	8f#	früh	Wie-	[	8ff#	früh	Wie-	[
8D	schon	-se	.	8c#	schon	-se	.	8gn	schon	-se	.	8ee	schon	-se	.
8D	wie-	hast	.	8f#	wie-	hast	.	8f#	wie-	hast	.	8dd	wie-	hast	.
16D	-der	du	.	16e	-der	du	.	16f#	-der	du	.	16cc#	-der	du	.
16D	ge-	ge-	.	16d	ge-	ge-	.	16f#	ge-	ge-	.	16b	ge-	ge-	.
=4	=4	=4	=4	=4	=4	=4	=4	=4	=4	=4	=4	=4	=4	=4	=4
8E	-kom-	-schlu-	.	8c#	-kom-	-schlu-	.	8e	-kom-	-schlu-	.	8a	-kom-	-schlu-	.
8E	-men?	-mmert,	.	8B	-men?	-mmert,	.	8e	-men?	-mmert,	.	8g#	-men?	-mmert,	.
4r	.	.	.	8e	Sei	lieb-	.	4r	.	.	.	4r	.	.	.
.	.	.	.	16B	mir	-li-	.	.	.	.	.	.	.	.	.
.	.	.	.	16c#	ge-	-che	.	.	.	.	.	.	.	.	.
=5	=5	=5	=5	=5	=5	=5	=5	=5	=5	=5	=5	=5	=5	=5	=5
*	*	*	*	*	*	*	*	*	*	*	*	*	*	*	*
4r	.	.	.	8e	-grü-	Pri-	.	4r	.	.	.	4r	.	.	.
.	.	.	.	[4.d	-sset,	-mel,	<	.	.	.	.	.	.	.	.
8E	Sei	lieb-	<	.	.	.	.	8g#X	Sei	lieb-	<	8ee	Sei	lieb-	<
16E	mir	-li-	.	.	.	.	.	16e	mir	-li-	.	16g#	mir	-li-	.
16F#	ge-	-che	.	.	.	.	.	16e	ge-	-che	.	16a	ge-	-che	.
=6	=6	=6	=6	=6	=6	=6	=6	=6	=6	=6	=6	=6	=6	=6	=6
8A	-grü-	Pri-	.	4d]	.	.	.	8e	-grü-	Pri-	.	8cc#	-grü-	Pri-	.
4G#	-sset,	-mel,	.	.	.	.	.	4e	-sset,	-mel,	.	4b	-sset,	-mel,	.
.	.	.	.	8e	Bo-	Bo-	.	.	.	.	.	.	.	.	.
8r	.	.	.	16d	-tin	-tin	.	8r	.	.	.	8r	.	.	.
.	.	.	.	16e	des	des	.	.	.	.	.	.	.	.	.
=7	=7	=7	=7	=7	=7	=7	=7	=7	=7	=7	=7	=7	=7	=7	=7
4r	.	.	.	8d	Früh-	Früh-	.	4r	.	.	.	4r	.	.	.
.	.	.	.	4.c#	-lings,	-lings,	.	.	.	.	.	.	.	.	.
8A	Bo-	Bo-	.	.	.	.	.	8gn	Bo-	Bo-	.	8ee	Bo-	Bo-	.
16A	-tin	-tin	.	.	.	.	.	16f#	-tin	-tin	.	16dd	-tin	-tin	.
16A	des	des	.	.	.	.	.	16g	des	des	.	16ee	des	des	.
*	*	*	*	*	*	*	*	*	*	*	*	*	*	*	*
=8	=8	=8	=8	=8	=8	=8	=8	=8	=8	=8	=8	=8	=8	=8	=8
8A#X	Früh-	Früh-	.	4r	.	.	.	8f#	Früh-	Früh-	.	8dd	Früh-	Früh-	.
8A#	-lings,	-lings,	.	.	.	.	.	8e	-lings,	-lings,	.	8cc#	-lings,	-lings,	.
8A#	sei	lieb-	<	8e	sei	lieb-	<	8f#	sei	lieb-	<	8cc#	sei	lieb-	<
16A#	mir	-li-	.	16e	mir	-li-	.	16f#	mir	-li-	.	16cc#	mir	-li-	.
16A#	ge-	-che	[[	16e	ge-	-che	[[	16f#	ge-	-che	[[	16cc#	ge-	-che	[[
=9	=9	=9	=9	=9	=9	=9	=9	=9	=9	=9	=9	=9	=9	=9	=9
*	*	*	*	*	*	*	*	*	*	*	*	*	*	*	*
2A#X	-grü-	Pri-	f	4c#	-grü-	Pri-	f	4f#	-grü-	Pri-	f	4ff#	-grü-	Pri-	f
.	.	.	.	4f#	-sset,	-mel,	.	4cc#	-sset,	-mel,	.	4ee	-sset,	-mel,	.
=10	=10	=10	=10	=10	=10	=10	=10	=10	=10	=10	=10	=10	=10	=10	=10
4B	-sset,	-mel,	>	[4f#	Bo-	Bo-	.	[4b	Bo-	Bo-	.	4dd#X	Bo-	Bo-	.
8BB	Bo-	Bo-	p	8f#]	.	.	p	8b]	.	.	p	8ddn	.	.	p
16C#	-tin	-tin	.	16e	-tin	-tin	.	16f#	-tin	-tin	.	16cc#	-tin	-tin	.
16D	des	des	.	16d	des	des	.	16f#	des	des	.	16b	des	des	.
*	*	*	*	*	*	*	*	*	*	*	*	*	*	*	*
=11	=11	=11	=11	=11	=11	=11	=11	=11	=11	=11	=11	=11	=11	=11	=11
*	*	*	*	*	*	*	*	*	*	*	*	*	*	*	*
4E	Früh-	Früh-	.	4c#	Früh-	Früh-	.	4e	Früh-	Früh-	.	4.a	Früh-	Früh-	.
4E	-lings!	-lings!	.	4d	-lings!	-lings!	.	4e	-lings!	-lings!	.	.	.	.	.
.	.	.	.	.	.	.	.	.	.	.	.	16cc#L	.	.	.
.	.	.	.	.	.	.	.	.	.	.	.	16bJ	.	.	.
*	*	*	*	*	*	*	*	*	*	*	*	*	*	*	*
=12	=12	=12	=12	=12	=12	=12	=12	=12	=12	=12	=12	=12	=12	=12	=12
*	*	*	*	*	*	*	*	*	*	*	*	*	*	*	*
8A	Sei	Sei	pp	8c#	Sei	Sei	pp	8e	Sei	Sei	pp	8a	-lings!	-lings!	.
16A	mir	mir	.	16d	mir	mir	.	16f#	mir	mir	.	8r	.	.	.
16A	ge-	ge-	.	16c#	ge-	ge-	.	16e	ge-	ge-	.	.	.	.	.
8A	-grü-	-grü-	.	8c#	-grü-	-grü-	.	8e	-grü-	-grü-	.	4r	.	.	.
8A	-sset;	-sset;	.	16dL	-sset;	-sset;	.	16f#L	-sset;	-sset;	.	.	.	.	.
.	.	.	.	16c#J	.	.	.	16eJ	.	.	.	.	.	.	.
=13	=13	=13	=13	=13	=13	=13	=13	=13	=13	=13	=13	=13	=13	=13	=13
*	*	*	*	*	*	*	*	*	*	*	*	*	*	*	*
8A	sei	sei	.	8c#	sei	sei	.	8e	sei	sei	.	4a	Sei	Sei	pp
16A	mir	mir	.	16d	mir	mir	.	16f#	mir	mir	.	.	.	.	.
16A	ge-	ge-	.	16c#	ge-	ge-	.	16e	ge-	ge-	.	.	.	.	.
4A	-grü-	-grü-	.	(8.BL	-grü-	-grü-	.	8dL	-grü-	-grü-	.	16g#L	mir	mir	.
.	.	.	.	.	.	.	.	.	.	.	.	16bJ	.	.	.
.	.	.	.	.	.	.	.	8g#J	.	.	.	16ddL	ge-	ge-	.
.	.	.	.	16dJk)	.	.	.	.	.	.	.	16ff#J	.	.	.
*	*	*	*	*	*	*	*	*	*	*	*	*	*	*	*
*	*	*	*	*	*	*	*	*	*	*	*	*	*	*	*
=14	=14	=14	=14	=14	=14	=14	=14	=14	=14	=14	=14	=14	=14	=14	=14
8AA	-sset,	-sset,	.	8c#	-sset,	-sset,	.	8a	-sset,	-sset,	.	(8eeL	-grü-	-grü-	.
8r	.	.	.	8r	.	.	.	8r	.	.	.	8cc#J)	.	.	.
8A	Bo-	Bo-	.	8c#	Bo-	Bo-	.	8e	Bo-	Bo-	.	8a	-sset;	-sset;	.
16A	-tin	-tin	.	16d	-tin	-tin	.	16f#	-tin	-tin	.	8r	.	.	.
16A	des	des	.	16c#	des	des	.	16e	des	des	.	.	.	.	.
=15	=15	=15	=15	=15	=15	=15	=15	=15	=15	=15	=15	=15	=15	=15	=15
*	*	*	*	*	*	*	*	*	*	*	*	*	*	*	*
8A	Früh-	Früh-	.	8c#	Früh-	Früh-	.	8e	Früh-	Früh-	.	4a	sei	sei	.
16A	-lings,	-lings,	.	16d	-lings,	-lings,	.	16f#	-lings,	-lings,	.	.	.	.	.
16A	des	des	.	16c#	des	des	.	16e	des	des	.	.	.	.	.
*	*	*	*	*	*	*	*	*	*	*	*	*	*	*	*
4A	Früh-	Früh-	.	8.BL	Früh-	Früh-	.	8dL	Früh-	Früh-	.	16g#L	mir	mir	.
.	.	.	.	.	.	.	.	.	.	.	.	16bJ	.	.	.
.	.	.	.	.	.	.	.	8g#J	.	.	.	16ddL	ge-	ge-	.
.	.	.	.	16dJ	.	.	.	.	.	.	.	16ff#J	.	.	.
*	*	*	*	*	*	*	*	*	*	*	*	*	*	*	*
=16	=16	=16	=16	=16	=16	=16	=16	=16	=16	=16	=16	=16	=16	=16	=16
8AA	-lings,	-lings,	.	8c#	-lings,	-lings,	.	8a	-lings,	-lings,	.	8eeL	-grü-	-grü-	.
8r	.	.	.	8r	.	.	.	8r	.	.	.	8cc#J	.	.	.
4r	.	.	.	16AL	sei	sei	f	[4a	Bo-	Bo-	f	8a	-sset,	-sset,	.
.	.	.	.	16c#J	.	.	.	.	.	.	.	.	.	.	.
.	.	.	.	16e	mir	mir	.	.	.	.	.	8r	.	.	.
.	.	.	.	16gn	ge-	ge-	.	.	.	.	.	.	.	.	.
=17	=17	=17	=17	=17	=17	=17	=17	=17	=17	=17	=17	=17	=17	=17	=17
4r	.	.	.	4f#	-grü-	-grü-	.	4a]	.	.	.	8eeL	Bo-	Bo-	f
.	.	.	.	.	.	.	.	.	.	.	.	8ddJ	.	.	.
*	*	*	*	*	*	*	*	*	*	*	*	*	*	*	*
8r	.	.	.	8eL	-sset,	-sset,	.	8g#XL	-tin,	-tin,	.	8cc#	-tin	-tin	.
8d	du	du	f	8dJ	.	.	.	8f#J	.	.	.	8b	des	des	.
=18	=18	=18	=18	=18	=18	=18	=18	=18	=18	=18	=18	=18	=18	=18	=18
*	*	*	*	*	*	*	*	*	*	*	*	*	*	*	*
(8c#L	Bo-	Bo-	.	8eL	Bo-	Bo-	.	8aL	Bo-	Bo-	.	2ff#	Früh-	Früh-	.
8B	.	.	.	8dJ	.	.	.	8g#J	.	.	.	.	.	.	.
8A	.	.	.	8c#	-tin	-tin	.	8a	-tin	-tin	.	.	.	.	.
8G#J)	.	.	.	8d	des	des	.	8b	des	des	.	.	.	.	.
=19	=19	=19	=19	=19	=19	=19	=19	=19	=19	=19	=19	=19	=19	=19	=19
8A	-tin	-tin	.	(8c#L	Früh-	Früh-	.	4e	Früh-	Früh-	.	8ee	-lings,	-lings,	.
8C#	des	des	p	8eJ)	.	.	.	.	.	.	.	8a	des	des	p
4D	Früh-	Früh-	.	4d	.	.	p	8g#L	.	.	p	8.cc#L	Früh-	Früh-	.
.	.	.	.	.	.	.	.	8eJ	.	.	.	.	.	.	.
.	.	.	.	.	.	.	.	.	.	.	.	16bJk	.	.	.
*	*	*	*	*	*	*	*	*	*	*	*	*	*	*	*
=20	=20	=20	=20	=20	=20	=20	=20	=20	=20	=20	=20	=20	=20	=20	=20
!	!	!	!	!	!	!	!	!	!	!	!	!LO:TX:a:i:t=attacca № 3	!	!	!
4AA;	-lings!	-lings!	.	4c#;	-lings!	-lings!	.	4e;	-lings!	-lings!	.	4a;	-lings!	-lings!	.
==	==	==	==	==	==	==	==	==	==	==	==	==	==	==	==
*-	*-	*-	*-	*-	*-	*-	*-	*-	*-	*-	*-	*-	*-	*-	*-
!!!system-decoration: ([s1,s2,s3,s4])
!!!RDF**kern: i = editorial accidental
!!!AGN: Choral
!!!YOR: https://mdz-nbn-resolving.de/details:bsb11328486
!!!YOO: München, Bayerische Staatsbibliothek
!!!URL-scan: https://www.digitale-sammlungen.de/de/view/bsb11328486?page=4
!!!EED: Wolfgang Drescher
!!!END: 2024/11/12
!!!ENC: Wolfgang Drescher
!!!END: 2024/11/12
!!!title: @{OPS} @{ONM}. @{OTL}